(G-CODE GENERATED BY FLATCAM v8.91 - www.flatcam.org - Version Date: 2019/02/23)

(Name: motor - CADCAM Bottom Copper.GBR_iso_cnc)
(Type: G-code from Geometry)
(Units: IN)

(Created on Wednesday, 20 March 2019 at 22:15)

(TOOL DIAMETER: 0.016 in)
(Feedrate: 3.0 in/min)
(Feedrate_Z: 3.0 in/min)
(Feedrate rapids 3.0 in/min)

(Z_Cut: -0.002 in)
(Z_Move: 0.1 in)
(Z Toolchange: 1.0 in)
(X,Y Toolchange: 0.0000, 0.0000 in)
(Z Start: None in)
(Z End: 2.0 in)
(Steps per circle: 64)
(Postprocessor Geometry: default)

(X range:   -1.5620 ...    0.2620  in)
(Y range:   -1.5120 ...    0.0620  in)

(Spindle Speed: None RPM)
s16500
G20
G90
G94

G01 F3.00
G00 Z0.1000

M03
G00 X-0.2032 Y-0.4328
G01 F3.00
G01 Z-0.0020
G01 F3.00
G01 X-0.1276 Y-0.5085
G01 X-0.1206 Y-0.5134
G01 X-0.1152 Y-0.5153
G01 X-0.1098 Y-0.5160
G01 X-0.0358 Y-0.5160
G01 X0.0745 Y-0.6262
G01 X0.0745 Y-0.7719
G01 X0.0678 Y-0.7798
G01 X0.0640 Y-0.7879
G01 X0.0620 Y-0.7996
G01 X0.0630 Y-0.8085
G01 X0.0660 Y-0.8169
G01 X0.0728 Y-0.8265
G01 X0.0798 Y-0.8322
G01 X0.0874 Y-0.8359
G01 X0.0962 Y-0.8378
G01 X0.1080 Y-0.8371
G01 X0.1165 Y-0.8342
G01 X0.1237 Y-0.8297
G01 X0.1297 Y-0.8237
G01 X0.1342 Y-0.8165
G01 X0.1370 Y-0.8085
G01 X0.1380 Y-0.8000
G01 X0.1370 Y-0.7915
G01 X0.1344 Y-0.7839
G01 X0.1300 Y-0.7767
G01 X0.1255 Y-0.7719
G01 X0.1255 Y-0.6154
G01 X0.1241 Y-0.6072
G01 X0.1199 Y-0.5998
G01 X-0.0097 Y-0.4702
G01 X-0.0164 Y-0.4665
G01 X-0.0228 Y-0.4651
G01 X-0.0990 Y-0.4649
G01 X-0.1672 Y-0.3968
G01 X-0.1703 Y-0.3857
G01 X-0.1767 Y-0.3767
G01 X-0.1857 Y-0.3703
G01 X-0.1963 Y-0.3672
G01 X-0.2037 Y-0.3672
G01 X-0.2105 Y-0.3687
G01 X-0.2206 Y-0.3742
G01 X-0.2282 Y-0.3828
G01 X-0.2311 Y-0.3891
G01 X-0.2328 Y-0.3963
G01 X-0.2321 Y-0.4078
G01 X-0.2297 Y-0.4143
G01 X-0.2258 Y-0.4206
G01 X-0.2206 Y-0.4258
G01 X-0.2147 Y-0.4295
G01 X-0.2078 Y-0.4321
G01 X-0.2032 Y-0.4328
G00 Z0.1000
G00 X-0.2755 Y-0.4709
G01 F3.00
G01 Z-0.0020
G01 F3.00
G01 X-0.2754 Y-0.5108
G01 X-0.2741 Y-0.5168
G01 X-0.2716 Y-0.5220
G01 X-0.2680 Y-0.5264
G01 X-0.1862 Y-0.6082
G01 X-0.1814 Y-0.6120
G01 X-0.1743 Y-0.6150
G01 X-0.1684 Y-0.6157
G01 X-0.0846 Y-0.6157
G01 X-0.0794 Y-0.6240
G01 X-0.0702 Y-0.6322
G01 X-0.0621 Y-0.6360
G01 X-0.0504 Y-0.6380
G01 X-0.0415 Y-0.6370
G01 X-0.0331 Y-0.6340
G01 X-0.0235 Y-0.6272
G01 X-0.0176 Y-0.6198
G01 X-0.0141 Y-0.6126
G01 X-0.0122 Y-0.6043
G01 X-0.0122 Y-0.5957
G01 X-0.0141 Y-0.5874
G01 X-0.0178 Y-0.5798
G01 X-0.0231 Y-0.5731
G01 X-0.0298 Y-0.5678
G01 X-0.0370 Y-0.5643
G01 X-0.0420 Y-0.5629
G01 X-0.0500 Y-0.5620
G01 X-0.0580 Y-0.5629
G01 X-0.0640 Y-0.5647
G01 X-0.1576 Y-0.5647
G01 X-0.2245 Y-0.4978
G01 X-0.2245 Y-0.4709
G01 X-0.2218 Y-0.4672
G01 X-0.2187 Y-0.4605
G01 X-0.2172 Y-0.4537
G01 X-0.2172 Y-0.4463
G01 X-0.2189 Y-0.4391
G01 X-0.2221 Y-0.4324
G01 X-0.2267 Y-0.4267
G01 X-0.2328 Y-0.4218
G01 X-0.2427 Y-0.4178
G01 X-0.2541 Y-0.4173
G01 X-0.2609 Y-0.4189
G01 X-0.2672 Y-0.4218
G01 X-0.2755 Y-0.4291
G01 X-0.2811 Y-0.4391
G01 X-0.2830 Y-0.4500
G01 X-0.2811 Y-0.4609
G01 X-0.2755 Y-0.4709
G00 Z0.1000
G00 X-0.7754 Y-0.3930
G01 F3.00
G01 Z-0.0020
G01 F3.00
G01 X-0.7046 Y-0.3930
G01 X-0.7004 Y-0.3915
G01 X-0.6980 Y-0.3889
G01 X-0.6970 Y-0.3850
G01 X-0.6971 Y-0.3137
G01 X-0.6990 Y-0.3097
G01 X-0.7020 Y-0.3076
G01 X-0.7145 Y-0.3070
G01 X-0.7145 Y-0.2507
G01 X-0.6575 Y-0.1937
G01 X-0.4424 Y-0.1937
G01 X-0.2828 Y-0.3532
G01 X-0.2811 Y-0.3609
G01 X-0.2779 Y-0.3676
G01 X-0.2733 Y-0.3733
G01 X-0.2679 Y-0.3777
G01 X-0.2605 Y-0.3813
G01 X-0.2500 Y-0.3830
G01 X-0.2422 Y-0.3821
G01 X-0.2324 Y-0.3779
G01 X-0.2264 Y-0.3730
G01 X-0.2203 Y-0.3643
G01 X-0.2177 Y-0.3569
G01 X-0.2172 Y-0.3468
G01 X-0.2203 Y-0.3357
G01 X-0.2267 Y-0.3267
G01 X-0.2357 Y-0.3203
G01 X-0.2468 Y-0.3172
G01 X-0.4138 Y-0.1501
G01 X-0.4208 Y-0.1452
G01 X-0.4261 Y-0.1433
G01 X-0.4318 Y-0.1427
G01 X-0.6704 Y-0.1428
G01 X-0.6791 Y-0.1452
G01 X-0.6859 Y-0.1500
G01 X-0.7582 Y-0.2223
G01 X-0.7632 Y-0.2295
G01 X-0.7649 Y-0.2345
G01 X-0.7655 Y-0.2399
G01 X-0.7655 Y-0.3070
G01 X-0.7780 Y-0.3076
G01 X-0.7815 Y-0.3104
G01 X-0.7830 Y-0.3146
G01 X-0.7830 Y-0.3854
G01 X-0.7810 Y-0.3903
G01 X-0.7780 Y-0.3924
G01 X-0.7754 Y-0.3930
G00 Z0.1000
G00 X-1.0954 Y-0.3930
G01 F3.00
G01 Z-0.0020
G01 F3.00
G01 X-1.0531 Y-0.3930
G01 X-0.9319 Y-0.5142
G01 X-0.9404 Y-0.5241
G01 X-0.9451 Y-0.5337
G01 X-0.9477 Y-0.5446
G01 X-0.9477 Y-0.5554
G01 X-0.9453 Y-0.5659
G01 X-0.9404 Y-0.5759
G01 X-0.9372 Y-0.5803
G01 X-0.9303 Y-0.5872
G01 X-0.9208 Y-0.5932
G01 X-0.9111 Y-0.5967
G01 X-0.9049 Y-0.5977
G01 X-0.8946 Y-0.5977
G01 X-0.8846 Y-0.5954
G01 X-0.8788 Y-0.5930
G01 X-0.8701 Y-0.5875
G01 X-0.8628 Y-0.5803
G01 X-0.8593 Y-0.5755
G01 X-0.7407 Y-0.5755
G01 X-0.7372 Y-0.5803
G01 X-0.7299 Y-0.5875
G01 X-0.7212 Y-0.5930
G01 X-0.7159 Y-0.5953
G01 X-0.7058 Y-0.5976
G01 X-0.7000 Y-0.5980
G01 X-0.6898 Y-0.5969
G01 X-0.6841 Y-0.5953
G01 X-0.6748 Y-0.5909
G01 X-0.6697 Y-0.5872
G01 X-0.6625 Y-0.5799
G01 X-0.6570 Y-0.5712
G01 X-0.6546 Y-0.5654
G01 X-0.6523 Y-0.5554
G01 X-0.6523 Y-0.5451
G01 X-0.6532 Y-0.5393
G01 X-0.5401 Y-0.4259
G01 X-0.5368 Y-0.4207
G01 X-0.5347 Y-0.4133
G01 X-0.5345 Y-0.3930
G01 X-0.5228 Y-0.3927
G01 X-0.5204 Y-0.3915
G01 X-0.5180 Y-0.3889
G01 X-0.5170 Y-0.3850
G01 X-0.5170 Y-0.3146
G01 X-0.5180 Y-0.3111
G01 X-0.5204 Y-0.3085
G01 X-0.5250 Y-0.3070
G01 X-0.5950 Y-0.3070
G01 X-0.5980 Y-0.3076
G01 X-0.6003 Y-0.3090
G01 X-0.6024 Y-0.3120
G01 X-0.6030 Y-0.3146
G01 X-0.6029 Y-0.3863
G01 X-0.6015 Y-0.3896
G01 X-0.5980 Y-0.3924
G01 X-0.5855 Y-0.3930
G01 X-0.5855 Y-0.3994
G01 X-0.6098 Y-0.4237
G01 X-0.6156 Y-0.4264
G01 X-0.6200 Y-0.4300
G01 X-0.6236 Y-0.4344
G01 X-0.6263 Y-0.4402
G01 X-0.6893 Y-0.5032
G01 X-0.6951 Y-0.5023
G01 X-0.7049 Y-0.5023
G01 X-0.7163 Y-0.5049
G01 X-0.7252 Y-0.5091
G01 X-0.7299 Y-0.5125
G01 X-0.7372 Y-0.5197
G01 X-0.7407 Y-0.5245
G01 X-0.8593 Y-0.5245
G01 X-0.8661 Y-0.5161
G01 X-0.8745 Y-0.5093
G01 X-0.8751 Y-0.5043
G01 X-0.8768 Y-0.4993
G01 X-0.8818 Y-0.4921
G01 X-1.0170 Y-0.3569
G01 X-1.0170 Y-0.3431
G01 X-0.8058 Y-0.1319
G01 X-0.3157 Y-0.1319
G01 X0.1640 Y-0.6116
G01 X0.1640 Y-0.9765
G01 X-0.0180 Y-1.1586
G01 X-0.0216 Y-1.1631
G01 X-0.0241 Y-1.1682
G01 X-0.0254 Y-1.1742
G01 X-0.0255 Y-1.2291
G01 X-0.0311 Y-1.2391
G01 X-0.0330 Y-1.2500
G01 X-0.0322 Y-1.2573
G01 X-0.0297 Y-1.2643
G01 X-0.0258 Y-1.2706
G01 X-0.0206 Y-1.2758
G01 X-0.0143 Y-1.2797
G01 X-0.0078 Y-1.2821
G01 X0.0037 Y-1.2828
G01 X0.0109 Y-1.2811
G01 X0.0172 Y-1.2782
G01 X0.0258 Y-1.2706
G01 X0.0311 Y-1.2609
G01 X0.0330 Y-1.2500
G01 X0.0311 Y-1.2391
G01 X0.0255 Y-1.2291
G01 X0.0255 Y-1.1872
G01 X0.2076 Y-1.0051
G01 X0.2125 Y-0.9982
G01 X0.2144 Y-0.9928
G01 X0.2150 Y-0.9871
G01 X0.2150 Y-0.6011
G01 X0.2143 Y-0.5950
G01 X0.2114 Y-0.5879
G01 X0.2076 Y-0.5830
G01 X-0.2871 Y-0.0884
G01 X-0.2941 Y-0.0834
G01 X-0.2995 Y-0.0815
G01 X-0.3051 Y-0.0809
G01 X-0.8164 Y-0.0809
G01 X-0.8253 Y-0.0825
G01 X-0.8300 Y-0.0848
G01 X-0.8344 Y-0.0884
G01 X-1.0531 Y-0.3070
G01 X-1.0954 Y-0.3070
G01 X-1.0980 Y-0.3076
G01 X-1.1010 Y-0.3097
G01 X-1.1030 Y-0.3146
G01 X-1.1030 Y-0.3854
G01 X-1.1020 Y-0.3889
G01 X-1.1003 Y-0.3910
G01 X-1.0954 Y-0.3930
G00 Z0.1000
G00 X-1.1003 Y-0.1755
G01 F3.00
G01 Z-0.0020
G01 F3.00
G01 X-0.9859 Y-0.1755
G01 X-0.9804 Y-0.1749
G01 X-0.9750 Y-0.1730
G01 X-0.9681 Y-0.1680
G01 X-0.8599 Y-0.0599
G01 X-0.2785 Y-0.0599
G01 X0.0620 Y-0.4004
G01 X0.0630 Y-0.4085
G01 X0.0658 Y-0.4165
G01 X0.0703 Y-0.4237
G01 X0.0763 Y-0.4297
G01 X0.0839 Y-0.4344
G01 X0.0953 Y-0.4377
G01 X0.1043 Y-0.4378
G01 X0.1126 Y-0.4359
G01 X0.1206 Y-0.4319
G01 X0.1294 Y-0.4240
G01 X0.1342 Y-0.4165
G01 X0.1371 Y-0.4080
G01 X0.1380 Y-0.3996
G01 X0.1360 Y-0.3879
G01 X0.1322 Y-0.3798
G01 X0.1269 Y-0.3731
G01 X0.1202 Y-0.3678
G01 X0.1126 Y-0.3641
G01 X0.1043 Y-0.3622
G01 X0.0959 Y-0.3622
G01 X-0.2499 Y-0.0164
G01 X-0.2565 Y-0.0116
G01 X-0.2627 Y-0.0094
G01 X-0.2679 Y-0.0089
G01 X-0.8705 Y-0.0089
G01 X-0.8757 Y-0.0094
G01 X-0.8820 Y-0.0116
G01 X-0.8884 Y-0.0162
G01 X-0.9967 Y-0.1245
G01 X-1.1003 Y-0.1245
G01 X-1.1104 Y-0.1189
G01 X-1.1213 Y-0.1170
G01 X-1.1322 Y-0.1189
G01 X-1.1418 Y-0.1242
G01 X-1.1494 Y-0.1328
G01 X-1.1524 Y-0.1391
G01 X-1.1541 Y-0.1463
G01 X-1.1533 Y-0.1578
G01 X-1.1510 Y-0.1643
G01 X-1.1471 Y-0.1706
G01 X-1.1384 Y-0.1782
G01 X-1.1322 Y-0.1811
G01 X-1.1250 Y-0.1828
G01 X-1.1176 Y-0.1828
G01 X-1.1108 Y-0.1813
G01 X-1.1041 Y-0.1782
G01 X-1.1003 Y-0.1755
G00 Z0.1000
G00 X-1.3755 Y-0.5291
G01 F3.00
G01 Z-0.0020
G01 F3.00
G01 X-1.3782 Y-0.5328
G01 X-1.3813 Y-0.5395
G01 X-1.3828 Y-0.5463
G01 X-1.3828 Y-0.5537
G01 X-1.3811 Y-0.5609
G01 X-1.3782 Y-0.5672
G01 X-1.3706 Y-0.5758
G01 X-1.3643 Y-0.5797
G01 X-1.3578 Y-0.5821
G01 X-1.3463 Y-0.5828
G01 X-1.3353 Y-0.5795
G01 X-1.3294 Y-0.5758
G01 X-1.3242 Y-0.5706
G01 X-1.3189 Y-0.5609
G01 X-1.3170 Y-0.5500
G01 X-1.3189 Y-0.5391
G01 X-1.3245 Y-0.5291
G01 X-1.3245 Y-0.4706
G01 X-1.2469 Y-0.3930
G01 X-1.2046 Y-0.3930
G01 X-1.2011 Y-0.3920
G01 X-1.1985 Y-0.3896
G01 X-1.1970 Y-0.3850
G01 X-1.1970 Y-0.3150
G01 X-1.1976 Y-0.3120
G01 X-1.1997 Y-0.3090
G01 X-1.2046 Y-0.3070
G01 X-1.2750 Y-0.3070
G01 X-1.2780 Y-0.3076
G01 X-1.2810 Y-0.3097
G01 X-1.2830 Y-0.3146
G01 X-1.2830 Y-0.3569
G01 X-1.3680 Y-0.4420
G01 X-1.3732 Y-0.4493
G01 X-1.3749 Y-0.4543
G01 X-1.3755 Y-0.4598
G01 X-1.3755 Y-0.5291
G00 Z0.1000
G00 X-1.3219 Y-0.8755
G01 F3.00
G01 Z-0.0020
G01 F3.00
G01 X-1.2799 Y-0.8754
G01 X-1.2739 Y-0.8741
G01 X-1.2687 Y-0.8716
G01 X-1.2643 Y-0.8680
G01 X-1.2045 Y-0.8083
G01 X-1.1999 Y-0.8016
G01 X-1.1975 Y-0.7930
G01 X-1.1974 Y-0.6769
G01 X-1.1980 Y-0.6714
G01 X-1.1997 Y-0.6665
G01 X-1.2047 Y-0.6592
G01 X-1.2672 Y-0.5968
G01 X-1.2703 Y-0.5857
G01 X-1.2767 Y-0.5767
G01 X-1.2857 Y-0.5703
G01 X-1.2968 Y-0.5672
G01 X-1.3037 Y-0.5672
G01 X-1.3113 Y-0.5690
G01 X-1.3202 Y-0.5739
G01 X-1.3255 Y-0.5791
G01 X-1.3297 Y-0.5857
G01 X-1.3322 Y-0.5927
G01 X-1.3330 Y-0.6000
G01 X-1.3322 Y-0.6073
G01 X-1.3295 Y-0.6147
G01 X-1.3233 Y-0.6233
G01 X-1.3143 Y-0.6297
G01 X-1.3032 Y-0.6328
G01 X-1.2484 Y-0.6877
G01 X-1.2484 Y-0.7800
G01 X-1.2929 Y-0.8245
G01 X-1.3219 Y-0.8245
G01 X-1.3298 Y-0.8178
G01 X-1.3379 Y-0.8140
G01 X-1.3496 Y-0.8120
G01 X-1.3585 Y-0.8130
G01 X-1.3702 Y-0.8178
G01 X-1.3794 Y-0.8260
G01 X-1.3844 Y-0.8339
G01 X-1.3869 Y-0.8411
G01 X-1.3878 Y-0.8462
G01 X-1.3870 Y-0.8585
G01 X-1.3824 Y-0.8698
G01 X-1.3765 Y-0.8772
G01 X-1.3706 Y-0.8819
G01 X-1.3661 Y-0.8844
G01 X-1.3543 Y-0.8878
G01 X-1.3415 Y-0.8870
G01 X-1.3302 Y-0.8824
G01 X-1.3219 Y-0.8755
G00 Z0.1000
G00 X-1.4510 Y-1.0851
G01 F3.00
G01 Z-0.0020
G01 F3.00
G01 X-1.2925 Y-1.2436
G01 X-1.2927 Y-1.2548
G01 X-1.2904 Y-1.2646
G01 X-1.2839 Y-1.2765
G01 X-1.2768 Y-1.2836
G01 X-1.2687 Y-1.2887
G01 X-1.2600 Y-1.2918
G01 X-1.2544 Y-1.2928
G01 X-1.2452 Y-1.2927
G01 X-1.2358 Y-1.2906
G01 X-1.2275 Y-1.2866
G01 X-1.2228 Y-1.2833
G01 X-1.2164 Y-1.2768
G01 X-1.2115 Y-1.2691
G01 X-1.2094 Y-1.2642
G01 X-1.2073 Y-1.2553
G01 X-1.2070 Y-1.2500
G01 X-1.2080 Y-1.2409
G01 X-1.2094 Y-1.2358
G01 X-1.2134 Y-1.2275
G01 X-1.2167 Y-1.2228
G01 X-1.2267 Y-1.2138
G01 X-1.2354 Y-1.2096
G01 X-1.2452 Y-1.2073
G01 X-1.2564 Y-1.2075
G01 X-1.4075 Y-1.0565
G01 X-1.4075 Y-0.7435
G01 X-1.3468 Y-0.6828
G01 X-1.3391 Y-0.6811
G01 X-1.3321 Y-0.6777
G01 X-1.3245 Y-0.6709
G01 X-1.3203 Y-0.6643
G01 X-1.3178 Y-0.6573
G01 X-1.3170 Y-0.6500
G01 X-1.3178 Y-0.6427
G01 X-1.3203 Y-0.6357
G01 X-1.3242 Y-0.6294
G01 X-1.3294 Y-0.6242
G01 X-1.3357 Y-0.6203
G01 X-1.3427 Y-0.6178
G01 X-1.3504 Y-0.6170
G01 X-1.3605 Y-0.6187
G01 X-1.3676 Y-0.6221
G01 X-1.3733 Y-0.6267
G01 X-1.3797 Y-0.6357
G01 X-1.3828 Y-0.6468
G01 X-1.4512 Y-0.7151
G01 X-1.4558 Y-0.7215
G01 X-1.4579 Y-0.7273
G01 X-1.4585 Y-0.7330
G01 X-1.4585 Y-1.0672
G01 X-1.4579 Y-1.0727
G01 X-1.4561 Y-1.0777
G01 X-1.4510 Y-1.0851
G00 Z0.1000
G00 X-1.5180 Y-1.1180
G01 F3.00
G01 Z-0.0020
G01 F3.00
G01 X-1.3879 Y-1.2482
G01 X-1.3870 Y-1.2585
G01 X-1.3842 Y-1.2665
G01 X-1.3797 Y-1.2737
G01 X-1.3737 Y-1.2797
G01 X-1.3665 Y-1.2842
G01 X-1.3589 Y-1.2869
G01 X-1.3538 Y-1.2878
G01 X-1.3457 Y-1.2878
G01 X-1.3374 Y-1.2859
G01 X-1.3302 Y-1.2824
G01 X-1.3260 Y-1.2794
G01 X-1.3203 Y-1.2737
G01 X-1.3141 Y-1.2626
G01 X-1.3120 Y-1.2500
G01 X-1.3141 Y-1.2374
G01 X-1.3203 Y-1.2263
G01 X-1.3263 Y-1.2203
G01 X-1.3335 Y-1.2158
G01 X-1.3415 Y-1.2130
G01 X-1.3518 Y-1.2121
G01 X-1.4745 Y-1.0894
G01 X-1.4745 Y-0.4606
G01 X-1.1968 Y-0.1828
G01 X-1.1922 Y-0.1821
G01 X-1.1853 Y-0.1795
G01 X-1.1794 Y-0.1758
G01 X-1.1742 Y-0.1706
G01 X-1.1703 Y-0.1643
G01 X-1.1677 Y-0.1569
G01 X-1.1670 Y-0.1496
G01 X-1.1687 Y-0.1395
G01 X-1.1721 Y-0.1324
G01 X-1.1767 Y-0.1267
G01 X-1.1824 Y-0.1221
G01 X-1.1891 Y-0.1189
G01 X-1.1996 Y-0.1170
G01 X-1.2073 Y-0.1178
G01 X-1.2172 Y-0.1218
G01 X-1.2233 Y-0.1267
G01 X-1.2297 Y-0.1357
G01 X-1.2328 Y-0.1468
G01 X-1.5180 Y-0.4320
G01 X-1.5216 Y-0.4364
G01 X-1.5241 Y-0.4416
G01 X-1.5255 Y-0.4500
G01 X-1.5255 Y-1.1000
G01 X-1.5239 Y-1.1088
G01 X-1.5216 Y-1.1136
G01 X-1.5180 Y-1.1180
G00 Z0.1000
G00 X-1.2754 Y-1.1430
G01 F3.00
G01 Z-0.0020
G01 F3.00
G01 X-1.2655 Y-1.1430
G01 X-1.2653 Y-1.1502
G01 X-1.2641 Y-1.1558
G01 X-1.2616 Y-1.1609
G01 X-1.2582 Y-1.1652
G01 X-0.9907 Y-1.4328
G01 X-0.9862 Y-1.4363
G01 X-0.9811 Y-1.4388
G01 X-0.9726 Y-1.4402
G01 X-0.4668 Y-1.4401
G01 X-0.4586 Y-1.4377
G01 X-0.4516 Y-1.4328
G01 X-0.0563 Y-1.0374
G01 X-0.0462 Y-1.0378
G01 X-0.0379 Y-1.0360
G01 X-0.0298 Y-1.0322
G01 X-0.0231 Y-1.0269
G01 X-0.0178 Y-1.0202
G01 X-0.0141 Y-1.0126
G01 X-0.0122 Y-1.0043
G01 X-0.0122 Y-0.9957
G01 X-0.0156 Y-0.9839
G01 X-0.0203 Y-0.9763
G01 X-0.0267 Y-0.9700
G01 X-0.0370 Y-0.9643
G01 X-0.0457 Y-0.9622
G01 X-0.0547 Y-0.9623
G01 X-0.0661 Y-0.9656
G01 X-0.0737 Y-0.9703
G01 X-0.0797 Y-0.9763
G01 X-0.0840 Y-0.9831
G01 X-0.0869 Y-0.9911
G01 X-0.0878 Y-0.9968
G01 X-0.4802 Y-1.3892
G01 X-0.9621 Y-1.3892
G01 X-1.2083 Y-1.1430
G01 X-1.2037 Y-1.1429
G01 X-1.2004 Y-1.1415
G01 X-1.1980 Y-1.1389
G01 X-1.1970 Y-1.1354
G01 X-1.1970 Y-1.0646
G01 X-1.1980 Y-1.0611
G01 X-1.2004 Y-1.0585
G01 X-1.2050 Y-1.0570
G01 X-1.2750 Y-1.0570
G01 X-1.2780 Y-1.0576
G01 X-1.2810 Y-1.0597
G01 X-1.2830 Y-1.0646
G01 X-1.2830 Y-1.1354
G01 X-1.2820 Y-1.1389
G01 X-1.2803 Y-1.1410
G01 X-1.2754 Y-1.1430
G00 Z0.1000
G00 X-1.1854 Y-1.1430
G01 F3.00
G01 Z-0.0020
G01 F3.00
G01 X-1.1146 Y-1.1430
G01 X-1.1104 Y-1.1415
G01 X-1.1073 Y-1.1372
G01 X-1.1071 Y-1.0637
G01 X-1.1090 Y-1.0597
G01 X-1.1120 Y-1.0576
G01 X-1.1245 Y-1.0570
G01 X-1.1245 Y-0.8450
G01 X-1.0819 Y-0.8024
G01 X-1.0441 Y-0.8024
G01 X-1.0349 Y-0.8042
G01 X-0.9844 Y-0.8042
G01 X-0.9255 Y-0.8631
G01 X-0.9255 Y-0.9093
G01 X-0.9303 Y-0.9128
G01 X-0.9372 Y-0.9197
G01 X-0.9434 Y-0.9296
G01 X-0.9467 Y-0.9389
G01 X-0.9477 Y-0.9446
G01 X-0.9480 Y-0.9504
G01 X-0.9469 Y-0.9602
G01 X-0.9451 Y-0.9663
G01 X-0.9406 Y-0.9755
G01 X-0.9342 Y-0.9836
G01 X-0.9299 Y-0.9875
G01 X-0.9252 Y-0.9909
G01 X-0.9159 Y-0.9953
G01 X-0.9058 Y-0.9976
G01 X-0.8996 Y-0.9980
G01 X-0.8893 Y-0.9968
G01 X-0.8792 Y-0.9932
G01 X-0.8701 Y-0.9875
G01 X-0.8628 Y-0.9803
G01 X-0.8591 Y-0.9752
G01 X-0.8546 Y-0.9654
G01 X-0.8523 Y-0.9554
G01 X-0.8523 Y-0.9451
G01 X-0.8547 Y-0.9341
G01 X-0.8594 Y-0.9245
G01 X-0.8661 Y-0.9161
G01 X-0.8745 Y-0.9093
G01 X-0.8745 Y-0.8523
G01 X-0.8751 Y-0.8469
G01 X-0.8768 Y-0.8419
G01 X-0.8818 Y-0.8347
G01 X-0.9122 Y-0.8042
G01 X-0.4209 Y-0.8042
G01 X-0.4109 Y-0.8099
G01 X-0.4000 Y-0.8117
G01 X-0.3891 Y-0.8099
G01 X-0.3791 Y-0.8042
G01 X-0.2709 Y-0.8042
G01 X-0.2609 Y-0.8099
G01 X-0.2496 Y-0.8117
G01 X-0.2395 Y-0.8100
G01 X-0.2328 Y-0.8069
G01 X-0.2267 Y-0.8021
G01 X-0.2223 Y-0.7967
G01 X-0.2189 Y-0.7896
G01 X-0.2172 Y-0.7824
G01 X-0.2172 Y-0.7750
G01 X-0.2190 Y-0.7674
G01 X-0.2239 Y-0.7585
G01 X-0.2294 Y-0.7529
G01 X-0.2387 Y-0.7478
G01 X-0.2463 Y-0.7459
G01 X-0.2537 Y-0.7459
G01 X-0.2605 Y-0.7475
G01 X-0.2672 Y-0.7506
G01 X-0.2709 Y-0.7532
G01 X-0.3791 Y-0.7532
G01 X-0.3891 Y-0.7476
G01 X-0.4000 Y-0.7457
G01 X-0.4109 Y-0.7476
G01 X-0.4209 Y-0.7532
G01 X-0.9663 Y-0.7532
G01 X-0.9754 Y-0.7514
G01 X-1.0927 Y-0.7514
G01 X-1.1004 Y-0.7527
G01 X-1.1064 Y-0.7556
G01 X-1.1245 Y-0.7729
G01 X-1.1245 Y-0.6606
G01 X-1.0607 Y-0.5968
G01 X-1.0500 Y-0.5980
G01 X-1.0389 Y-0.5967
G01 X-1.0296 Y-0.5934
G01 X-1.0248 Y-0.5909
G01 X-1.0161 Y-0.5839
G01 X-1.0094 Y-0.5755
G01 X-1.0047 Y-0.5659
G01 X-1.0023 Y-0.5554
G01 X-1.0023 Y-0.5446
G01 X-1.0046 Y-0.5346
G01 X-1.0070 Y-0.5288
G01 X-1.0125 Y-0.5201
G01 X-1.0197 Y-0.5128
G01 X-1.0292 Y-0.5068
G01 X-1.0393 Y-0.5032
G01 X-1.0500 Y-0.5020
G01 X-1.0607 Y-0.5032
G01 X-1.1245 Y-0.4394
G01 X-1.1245 Y-0.3930
G01 X-1.1120 Y-0.3924
G01 X-1.1090 Y-0.3903
G01 X-1.1071 Y-0.3863
G01 X-1.1070 Y-0.3150
G01 X-1.1085 Y-0.3104
G01 X-1.1111 Y-0.3080
G01 X-1.1146 Y-0.3070
G01 X-1.1850 Y-0.3070
G01 X-1.1880 Y-0.3076
G01 X-1.1915 Y-0.3104
G01 X-1.1930 Y-0.3146
G01 X-1.1930 Y-0.3854
G01 X-1.1915 Y-0.3896
G01 X-1.1880 Y-0.3924
G01 X-1.1755 Y-0.3930
G01 X-1.1755 Y-0.4502
G01 X-1.1739 Y-0.4588
G01 X-1.1716 Y-0.4636
G01 X-1.1682 Y-0.4679
G01 X-1.0968 Y-0.5393
G01 X-1.0980 Y-0.5500
G01 X-1.0968 Y-0.5607
G01 X-1.1683 Y-0.6323
G01 X-1.1730 Y-0.6389
G01 X-1.1753 Y-0.6467
G01 X-1.1755 Y-1.0570
G01 X-1.1880 Y-1.0576
G01 X-1.1915 Y-1.0604
G01 X-1.1930 Y-1.0650
G01 X-1.1930 Y-1.1354
G01 X-1.1910 Y-1.1403
G01 X-1.1889 Y-1.1420
G01 X-1.1854 Y-1.1430
G00 Z0.1000
G00 X-1.0954 Y-1.1430
G01 F3.00
G01 Z-0.0020
G01 F3.00
G01 X-1.0855 Y-1.1430
G01 X-1.0853 Y-1.1929
G01 X-1.0832 Y-1.2007
G01 X-1.0799 Y-1.2059
G01 X-0.9346 Y-1.3521
G01 X-0.9302 Y-1.3556
G01 X-0.9250 Y-1.3581
G01 X-0.9166 Y-1.3595
G01 X-0.4996 Y-1.3593
G01 X-0.4918 Y-1.3570
G01 X-0.4848 Y-1.3521
G01 X-0.0702 Y-0.9374
G01 X-0.0077 Y-0.9374
G01 X0.0204 Y-0.9655
G01 X0.0204 Y-1.0122
G01 X-0.0969 Y-1.1295
G01 X-0.1017 Y-1.1363
G01 X-0.1040 Y-1.1441
G01 X-0.1042 Y-1.2291
G01 X-0.1085 Y-1.2357
G01 X-0.1110 Y-1.2431
G01 X-0.1116 Y-1.2532
G01 X-0.1099 Y-1.2609
G01 X-0.1067 Y-1.2676
G01 X-0.1021 Y-1.2733
G01 X-0.0963 Y-1.2779
G01 X-0.0892 Y-1.2813
G01 X-0.0824 Y-1.2828
G01 X-0.0746 Y-1.2827
G01 X-0.0674 Y-1.2810
G01 X-0.0585 Y-1.2761
G01 X-0.0529 Y-1.2706
G01 X-0.0490 Y-1.2643
G01 X-0.0466 Y-1.2573
G01 X-0.0458 Y-1.2504
G01 X-0.0476 Y-1.2391
G01 X-0.0532 Y-1.2291
G01 X-0.0532 Y-1.1580
G01 X0.0639 Y-1.0408
G01 X0.0675 Y-1.0363
G01 X0.0701 Y-1.0308
G01 X0.0714 Y-1.0232
G01 X0.0712 Y-0.9517
G01 X0.0689 Y-0.9439
G01 X0.0641 Y-0.9371
G01 X0.0207 Y-0.8937
G01 X0.0164 Y-0.8903
G01 X0.0113 Y-0.8878
G01 X0.0031 Y-0.8864
G01 X-0.0810 Y-0.8864
G01 X-0.0888 Y-0.8877
G01 X-0.0943 Y-0.8903
G01 X-0.0988 Y-0.8939
G01 X-0.5134 Y-1.3085
G01 X-0.9054 Y-1.3085
G01 X-1.0345 Y-1.1794
G01 X-1.0345 Y-1.1430
G01 X-1.0237 Y-1.1429
G01 X-1.0190 Y-1.1403
G01 X-1.0171 Y-1.1363
G01 X-1.0170 Y-1.1255
G01 X-0.8662 Y-1.1255
G01 X-0.8578 Y-1.1241
G01 X-0.8526 Y-1.1216
G01 X-0.8483 Y-1.1182
G01 X-0.7870 Y-1.0569
G01 X-0.7819 Y-1.0495
G01 X-0.7802 Y-1.0445
G01 X-0.7795 Y-1.0393
G01 X-0.7795 Y-0.8823
G01 X-0.7712 Y-0.8740
G01 X-0.6621 Y-0.8740
G01 X-0.5968 Y-0.9393
G01 X-0.5977 Y-0.9451
G01 X-0.5977 Y-0.9549
G01 X-0.5951 Y-0.9663
G01 X-0.5909 Y-0.9752
G01 X-0.5875 Y-0.9799
G01 X-0.5803 Y-0.9872
G01 X-0.5755 Y-0.9907
G01 X-0.5755 Y-1.0570
G01 X-0.5963 Y-1.0571
G01 X-0.6003 Y-1.0590
G01 X-0.6027 Y-1.0628
G01 X-0.6030 Y-1.1350
G01 X-0.6024 Y-1.1380
G01 X-0.5996 Y-1.1415
G01 X-0.5954 Y-1.1430
G01 X-0.5250 Y-1.1430
G01 X-0.5204 Y-1.1415
G01 X-0.5173 Y-1.1372
G01 X-0.5170 Y-1.0646
G01 X-0.5190 Y-1.0597
G01 X-0.5211 Y-1.0580
G01 X-0.5245 Y-1.0570
G01 X-0.5245 Y-0.9907
G01 X-0.5161 Y-0.9839
G01 X-0.5091 Y-0.9752
G01 X-0.5066 Y-0.9704
G01 X-0.5033 Y-0.9611
G01 X-0.5020 Y-0.9500
G01 X-0.5024 Y-0.9442
G01 X-0.5047 Y-0.9341
G01 X-0.5091 Y-0.9248
G01 X-0.5128 Y-0.9197
G01 X-0.5197 Y-0.9128
G01 X-0.5241 Y-0.9096
G01 X-0.5341 Y-0.9047
G01 X-0.5398 Y-0.9031
G01 X-0.5496 Y-0.9020
G01 X-0.5607 Y-0.9032
G01 X-0.6336 Y-0.8303
G01 X-0.6379 Y-0.8269
G01 X-0.6431 Y-0.8244
G01 X-0.6515 Y-0.8230
G01 X-0.7851 Y-0.8232
G01 X-0.7929 Y-0.8255
G01 X-0.7995 Y-0.8302
G01 X-0.8247 Y-0.8555
G01 X-0.8291 Y-0.8633
G01 X-0.8305 Y-0.8718
G01 X-0.8305 Y-1.0283
G01 X-0.8767 Y-1.0745
G01 X-1.0170 Y-1.0745
G01 X-1.0171 Y-1.0637
G01 X-1.0190 Y-1.0597
G01 X-1.0237 Y-1.0571
G01 X-1.0345 Y-1.0570
G01 X-1.0345 Y-0.9954
G01 X-1.0245 Y-0.9906
G01 X-1.0164 Y-0.9842
G01 X-1.0122 Y-0.9796
G01 X-1.0066 Y-0.9704
G01 X-1.0032 Y-0.9607
G01 X-1.0020 Y-0.9500
G01 X-1.0032 Y-0.9393
G01 X-1.0066 Y-0.9296
G01 X-1.0125 Y-0.9201
G01 X-1.0201 Y-0.9125
G01 X-1.0292 Y-0.9068
G01 X-1.0398 Y-0.9031
G01 X-1.0451 Y-0.9023
G01 X-1.0549 Y-0.9023
G01 X-1.0654 Y-0.9046
G01 X-1.0755 Y-0.9094
G01 X-1.0839 Y-0.9161
G01 X-1.0904 Y-0.9241
G01 X-1.0934 Y-0.9296
G01 X-1.0968 Y-0.9393
G01 X-1.0980 Y-0.9496
G01 X-1.0976 Y-0.9558
G01 X-1.0951 Y-0.9663
G01 X-1.0906 Y-0.9755
G01 X-1.0855 Y-0.9822
G01 X-1.0855 Y-1.0570
G01 X-1.0980 Y-1.0576
G01 X-1.1015 Y-1.0604
G01 X-1.1030 Y-1.0646
G01 X-1.1030 Y-1.1354
G01 X-1.1020 Y-1.1389
G01 X-1.1003 Y-1.1410
G01 X-1.0954 Y-1.1430
G00 Z0.1000
G00 X-0.8154 Y-1.2755
G01 F3.00
G01 Z-0.0020
G01 F3.00
G01 X-0.7948 Y-1.2750
G01 X-0.7889 Y-1.2730
G01 X-0.7841 Y-1.2699
G01 X-0.7220 Y-1.2080
G01 X-0.7172 Y-1.2015
G01 X-0.7151 Y-1.1957
G01 X-0.7145 Y-1.1904
G01 X-0.7145 Y-1.1430
G01 X-0.7020 Y-1.1424
G01 X-0.6990 Y-1.1403
G01 X-0.6971 Y-1.1363
G01 X-0.6970 Y-1.0646
G01 X-0.6980 Y-1.0611
G01 X-0.7011 Y-1.0580
G01 X-0.7050 Y-1.0570
G01 X-0.7750 Y-1.0570
G01 X-0.7780 Y-1.0576
G01 X-0.7803 Y-1.0590
G01 X-0.7824 Y-1.0620
G01 X-0.7830 Y-1.0646
G01 X-0.7829 Y-1.1363
G01 X-0.7815 Y-1.1396
G01 X-0.7780 Y-1.1424
G01 X-0.7655 Y-1.1430
G01 X-0.7655 Y-1.1794
G01 X-0.8106 Y-1.2245
G01 X-0.8154 Y-1.2245
G01 X-0.8235 Y-1.2161
G01 X-0.8354 Y-1.2096
G01 X-0.8452 Y-1.2073
G01 X-0.8544 Y-1.2072
G01 X-0.8642 Y-1.2094
G01 X-0.8733 Y-1.2138
G01 X-0.8833 Y-1.2228
G01 X-0.8885 Y-1.2309
G01 X-0.8907 Y-1.2362
G01 X-0.8927 Y-1.2452
G01 X-0.8928 Y-1.2544
G01 X-0.8918 Y-1.2600
G01 X-0.8887 Y-1.2687
G01 X-0.8839 Y-1.2765
G01 X-0.8801 Y-1.2807
G01 X-0.8729 Y-1.2864
G01 X-0.8646 Y-1.2904
G01 X-0.8591 Y-1.2920
G01 X-0.8500 Y-1.2930
G01 X-0.8409 Y-1.2920
G01 X-0.8354 Y-1.2904
G01 X-0.8271 Y-1.2864
G01 X-0.8199 Y-1.2807
G01 X-0.8154 Y-1.2755
G00 Z0.1000
G00 X-0.6893 Y-0.9968
G01 F3.00
G01 Z-0.0020
G01 F3.00
G01 X-0.6755 Y-1.0106
G01 X-0.6755 Y-1.0570
G01 X-0.6872 Y-1.0573
G01 X-0.6903 Y-1.0590
G01 X-0.6927 Y-1.0628
G01 X-0.6930 Y-1.1354
G01 X-0.6915 Y-1.1396
G01 X-0.6880 Y-1.1424
G01 X-0.6755 Y-1.1430
G01 X-0.6753 Y-1.1804
G01 X-0.6739 Y-1.1864
G01 X-0.6702 Y-1.1931
G01 X-0.6152 Y-1.2485
G01 X-0.6109 Y-1.2519
G01 X-0.6057 Y-1.2543
G01 X-0.5973 Y-1.2558
G01 X-0.5092 Y-1.2558
G01 X-0.5012 Y-1.2545
G01 X-0.4956 Y-1.2519
G01 X-0.4912 Y-1.2483
G01 X-0.4278 Y-1.1849
G01 X-0.4244 Y-1.1806
G01 X-0.4218 Y-1.1750
G01 X-0.4205 Y-1.1670
G01 X-0.4205 Y-0.9937
G01 X-0.3473 Y-0.9205
G01 X-0.1948 Y-0.9205
G01 X-0.1893 Y-0.9199
G01 X-0.1836 Y-0.9178
G01 X-0.1770 Y-0.9131
G01 X-0.0818 Y-0.8179
G01 X-0.0782 Y-0.8132
G01 X-0.0752 Y-0.8061
G01 X-0.0745 Y-0.8000
G01 X-0.0745 Y-0.7257
G01 X-0.0752 Y-0.7196
G01 X-0.0782 Y-0.7125
G01 X-0.0817 Y-0.7080
G01 X-0.1007 Y-0.6889
G01 X-0.1077 Y-0.6841
G01 X-0.1127 Y-0.6824
G01 X-0.1182 Y-0.6818
G01 X-0.2225 Y-0.6818
G01 X-0.2291 Y-0.6745
G01 X-0.2353 Y-0.6705
G01 X-0.2427 Y-0.6678
G01 X-0.2500 Y-0.6670
G01 X-0.2609 Y-0.6689
G01 X-0.2709 Y-0.6745
G01 X-0.3791 Y-0.6745
G01 X-0.3891 Y-0.6689
G01 X-0.4000 Y-0.6670
G01 X-0.4109 Y-0.6689
G01 X-0.4209 Y-0.6745
G01 X-0.4581 Y-0.6745
G01 X-0.5176 Y-0.6149
G01 X-0.5176 Y-0.5854
G01 X-0.5094 Y-0.5755
G01 X-0.5046 Y-0.5654
G01 X-0.5031 Y-0.5602
G01 X-0.5020 Y-0.5504
G01 X-0.5032 Y-0.5393
G01 X-0.4096 Y-0.4457
G01 X-0.4048 Y-0.4388
G01 X-0.4024 Y-0.4306
G01 X-0.4023 Y-0.2999
G01 X-0.4037 Y-0.2914
G01 X-0.4062 Y-0.2863
G01 X-0.4096 Y-0.2820
G01 X-0.4667 Y-0.2248
G01 X-0.4716 Y-0.2211
G01 X-0.4786 Y-0.2181
G01 X-0.4848 Y-0.2174
G01 X-0.6130 Y-0.2174
G01 X-0.6186 Y-0.2180
G01 X-0.6236 Y-0.2197
G01 X-0.6308 Y-0.2247
G01 X-0.6702 Y-0.2644
G01 X-0.6739 Y-0.2711
G01 X-0.6753 Y-0.2771
G01 X-0.6755 Y-0.3070
G01 X-0.6880 Y-0.3076
G01 X-0.6910 Y-0.3097
G01 X-0.6929 Y-0.3137
G01 X-0.6930 Y-0.3854
G01 X-0.6910 Y-0.3903
G01 X-0.6880 Y-0.3924
G01 X-0.6854 Y-0.3930
G01 X-0.6150 Y-0.3930
G01 X-0.6120 Y-0.3924
G01 X-0.6097 Y-0.3910
G01 X-0.6076 Y-0.3880
G01 X-0.6070 Y-0.3854
G01 X-0.6070 Y-0.3146
G01 X-0.6085 Y-0.3104
G01 X-0.6120 Y-0.3076
G01 X-0.6245 Y-0.3070
G01 X-0.6245 Y-0.2905
G01 X-0.6024 Y-0.2684
G01 X-0.4953 Y-0.2684
G01 X-0.4533 Y-0.3104
G01 X-0.4533 Y-0.4172
G01 X-0.5393 Y-0.5032
G01 X-0.5451 Y-0.5023
G01 X-0.5554 Y-0.5023
G01 X-0.5654 Y-0.5046
G01 X-0.5712 Y-0.5070
G01 X-0.5799 Y-0.5125
G01 X-0.5872 Y-0.5197
G01 X-0.5909 Y-0.5248
G01 X-0.5953 Y-0.5341
G01 X-0.5969 Y-0.5398
G01 X-0.5980 Y-0.5500
G01 X-0.5976 Y-0.5558
G01 X-0.5954 Y-0.5654
G01 X-0.5906 Y-0.5755
G01 X-0.5842 Y-0.5836
G01 X-0.5759 Y-0.5904
G01 X-0.5686 Y-0.5942
G01 X-0.5685 Y-0.6283
G01 X-0.5672 Y-0.6339
G01 X-0.5647 Y-0.6391
G01 X-0.5612 Y-0.6435
G01 X-0.4865 Y-0.7182
G01 X-0.4801 Y-0.7228
G01 X-0.4743 Y-0.7249
G01 X-0.4686 Y-0.7255
G01 X-0.4209 Y-0.7255
G01 X-0.4109 Y-0.7311
G01 X-0.4000 Y-0.7330
G01 X-0.3891 Y-0.7311
G01 X-0.3791 Y-0.7255
G01 X-0.2709 Y-0.7255
G01 X-0.2609 Y-0.7311
G01 X-0.2504 Y-0.7330
G01 X-0.1290 Y-0.7328
G01 X-0.1255 Y-0.7362
G01 X-0.1255 Y-0.7894
G01 X-0.2056 Y-0.8695
G01 X-0.3581 Y-0.8695
G01 X-0.3635 Y-0.8701
G01 X-0.3693 Y-0.8722
G01 X-0.3759 Y-0.8770
G01 X-0.4642 Y-0.9653
G01 X-0.4676 Y-0.9696
G01 X-0.4699 Y-0.9743
G01 X-0.4715 Y-0.9829
G01 X-0.4715 Y-1.1565
G01 X-0.5198 Y-1.2048
G01 X-0.5868 Y-1.2048
G01 X-0.6245 Y-1.1670
G01 X-0.6245 Y-1.1430
G01 X-0.6120 Y-1.1424
G01 X-0.6090 Y-1.1403
G01 X-0.6071 Y-1.1363
G01 X-0.6070 Y-1.0650
G01 X-0.6085 Y-1.0604
G01 X-0.6120 Y-1.0576
G01 X-0.6245 Y-1.0570
G01 X-0.6245 Y-0.9998
G01 X-0.6259 Y-0.9916
G01 X-0.6303 Y-0.9838
G01 X-0.6532 Y-0.9607
G01 X-0.6520 Y-0.9500
G01 X-0.6533 Y-0.9389
G01 X-0.6566 Y-0.9296
G01 X-0.6591 Y-0.9248
G01 X-0.6661 Y-0.9161
G01 X-0.6745 Y-0.9094
G01 X-0.6846 Y-0.9046
G01 X-0.6942 Y-0.9024
G01 X-0.6996 Y-0.9020
G01 X-0.7107 Y-0.9032
G01 X-0.7204 Y-0.9066
G01 X-0.7259 Y-0.9096
G01 X-0.7339 Y-0.9161
G01 X-0.7406 Y-0.9245
G01 X-0.7451 Y-0.9337
G01 X-0.7469 Y-0.9398
G01 X-0.7480 Y-0.9500
G01 X-0.7468 Y-0.9607
G01 X-0.7434 Y-0.9704
G01 X-0.7404 Y-0.9759
G01 X-0.7339 Y-0.9839
G01 X-0.7255 Y-0.9906
G01 X-0.7159 Y-0.9953
G01 X-0.7058 Y-0.9976
G01 X-0.6996 Y-0.9980
G01 X-0.6893 Y-0.9968
G00 Z0.1000
G00 X-1.5380 Y-1.4880
G01 F3.00
G01 Z-0.0020
G01 F3.00
G01 X0.2380 Y-1.4880
G01 X0.2380 Y0.0380
G01 X-1.5380 Y0.0380
G01 X-1.5380 Y-1.4880
G00 Z0.1000
G00 X-1.5620 Y-1.5004
G01 F3.00
G01 Z-0.0020
G01 F3.00
G01 X-1.5610 Y-1.5048
G01 X-1.5585 Y-1.5085
G01 X-1.5544 Y-1.5112
G01 X-1.5500 Y-1.5120
G01 X0.2500 Y-1.5120
G01 X0.2540 Y-1.5113
G01 X0.2578 Y-1.5091
G01 X0.2608 Y-1.5052
G01 X0.2620 Y-1.5000
G01 X0.2620 Y0.0500
G01 X0.2613 Y0.0540
G01 X0.2591 Y0.0578
G01 X0.2552 Y0.0608
G01 X0.2500 Y0.0620
G01 X-1.5500 Y0.0620
G01 X-1.5540 Y0.0613
G01 X-1.5578 Y0.0591
G01 X-1.5608 Y0.0552
G01 X-1.5620 Y0.0500
G01 X-1.5620 Y-1.5004
G00 Z0.1000
M05
G00 Z0.1000
G00 Z2.00
G00 X0.0 Y0.0

