(G-CODE GENERATED BY FLATCAM v8.91 - www.flatcam.org - Version Date: 2019/02/23)

(Name: motor - CADCAM Drill.DRL_cnc)
(Type: G-code from Excellon)
(Units: IN)

(Created on Wednesday, 20 March 2019 at 22:15)

(Feedrate: 3.0 in/min)
(Feedrate rapids 3.0 in/min)

(Z_Cut: -0.1 in)
(Z_Move: 0.1 in)
(Z Toolchange: 1.0 in)
(X,Y Toolchange: 0.0000, 0.0000 in)
(Z Start: None in)
(Z End: 2.0 in)
(Steps per circle: 64)
(Postprocessor Excellon: default)

(X range:   -1.3650 ...    0.1150  in)
(Y range:   -1.2650 ...   -0.1350  in)

(Spindle Speed: None RPM)
s16500
G20
G90
G94

G01 F3.00
M03
G00 X-0.5600 Y-1.1000
G01 Z-0.1000
G01 Z0
G00 Z0.1000
G00 X-0.0787 Y-1.2500
G01 Z-0.1000
G01 Z0
G00 Z0.1000
G00 X0.0000 Y-1.2500
G01 Z-0.1000
G01 Z0
G00 Z0.1000
G00 X-0.0500 Y-1.0000
G01 Z-0.1000
G01 Z0
G00 Z0.1000
G00 X-0.0500 Y-0.6000
G01 Z-0.1000
G01 Z0
G00 Z0.1000
G00 X0.1000 Y-0.8000
G01 Z-0.1000
G01 Z0
G00 Z0.1000
G00 X0.1000 Y-0.4000
G01 Z-0.1000
G01 Z0
G00 Z0.1000
G00 X-0.2500 Y-0.4500
G01 Z-0.1000
G01 Z0
G00 Z0.1000
G00 X-1.1213 Y-0.1500
G01 Z-0.1000
G01 Z0
G00 Z0.1000
G00 X-1.2000 Y-0.1500
G01 Z-0.1000
G01 Z0
G00 Z0.1000
G00 X-1.3500 Y-0.8500
G01 Z-0.1000
G01 Z0
G00 Z0.1000
G00 X-1.3500 Y-1.2500
G01 Z-0.1000
G01 Z0
G00 Z0.1000
G00 X-1.2500 Y-1.2500
G01 Z-0.1000
G01 Z0
G00 Z0.1000
G00 X-0.8500 Y-1.2500
G01 Z-0.1000
G01 Z0
G00 Z0.1000
G00 X-1.3500 Y-0.6500
G01 Z-0.1000
G01 Z0
G00 Z0.1000
G00 X-1.3000 Y-0.6000
G01 Z-0.1000
G01 Z0
G00 Z0.1000
G00 X-1.3500 Y-0.5500
G01 Z-0.1000
G01 Z0
G00 Z0.1000
G00 X-0.4000 Y-0.7000
G01 Z-0.1000
G01 Z0
G00 Z0.1000
G00 X-0.2000 Y-0.4000
G01 Z-0.1000
G01 Z0
G00 Z0.1000
G00 X-0.2500 Y-0.3500
G01 Z-0.1000
G01 Z0
G00 Z0.1000
G00 X-0.2500 Y-0.7000
G01 Z-0.1000
G01 Z0
G00 Z0.1000
G00 X-0.2500 Y-0.7787
G01 Z-0.1000
G01 Z0
G00 Z0.1000
G00 X-0.4000 Y-0.7787
G01 Z-0.1000
G01 Z0
G00 Z0.1000
G00 X-0.7000 Y-0.5500
G01 Z-0.1000
G01 Z0
G00 Z0.1000
G00 X-0.7000 Y-0.9500
G01 Z-0.1000
G01 Z0
G00 Z0.1000
G00 X-0.9000 Y-0.5500
G01 Z-0.1000
G01 Z0
G00 Z0.1000
G00 X-0.9000 Y-0.9500
G01 Z-0.1000
G01 Z0
G00 Z0.1000
G00 X-1.0500 Y-0.5500
G01 Z-0.1000
G01 Z0
G00 Z0.1000
G00 X-1.0500 Y-0.9500
G01 Z-0.1000
G01 Z0
G00 Z0.1000
G00 X-0.5500 Y-0.5500
G01 Z-0.1000
G01 Z0
G00 Z0.1000
G00 X-0.5500 Y-0.9500
G01 Z-0.1000
G01 Z0
G00 Z0.1000
G00 X-0.7400 Y-0.3500
G01 Z-0.1000
G01 Z0
G00 Z0.1000
G00 X-0.6500 Y-0.3500
G01 Z-0.1000
G01 Z0
G00 Z0.1000
G00 X-0.5600 Y-0.3500
G01 Z-0.1000
G01 Z0
G00 Z0.1000
G00 X-1.2400 Y-0.3500
G01 Z-0.1000
G01 Z0
G00 Z0.1000
G00 X-1.1500 Y-0.3500
G01 Z-0.1000
G01 Z0
G00 Z0.1000
G00 X-1.0600 Y-0.3500
G01 Z-0.1000
G01 Z0
G00 Z0.1000
G00 X-1.2400 Y-1.1000
G01 Z-0.1000
G01 Z0
G00 Z0.1000
G00 X-1.1500 Y-1.1000
G01 Z-0.1000
G01 Z0
G00 Z0.1000
G00 X-1.0600 Y-1.1000
G01 Z-0.1000
G01 Z0
G00 Z0.1000
G00 X-0.7400 Y-1.1000
G01 Z-0.1000
G01 Z0
G00 Z0.1000
G00 X-0.6500 Y-1.1000
G01 Z-0.1000
G01 Z0
G00 Z0.1000
M05
G00 Z2.00
G00 X0.0 Y0.0

